X:1
T:Im Maien
T:Agathon Billeter
T:Julius Rodenberg
T:Im Maien
T:CPDL - Creative Commons Attribution Non Commercial 3.0
C:Agathon Billeter
Z:Julius Rodenberg
Z:CPDL - Creative Commons Attribution Non Commercial 3.0
%%score [ ( 1 2 ) ( 3 4 ) ]
L:1/8
Q:1/4=80
M:2/4
K:F
V:1 treble-8 nm="Tenor"
V:2 treble-8 
V:3 bass nm="Bass"
V:4 bass 
V:1
!p!"^Etwas bewegt"!<(! c | c=B c!<)!f | !>!f2!>(! ed | c^c d>!>)!B | A3"^cresc." c | c=B c c/a/ | %6
w: 1.~Nun|bricht aus al- len|Zwei- gen das|mai- en- fri- sche|Grün, die|ers- ten Ler- chen *|
w: 2.~Und|wie die Knos- pen|sprin- gen, da|regt sich's all- zu-|mal; die|mun- tern Vö- gel *|
w: 3.~Wie|sich die Bäu- me|wie- gen im|lie- ben Son- nen-|schein! Wie|hoch die Vö- gel *|
 !>!a2 g c/d/ |!<(! e>e!<)! ed |!f! g^f !breath!=fe |[Q:1/4=72]"^poco rit."!>(! f A/d/ G=B | %10
w: stei- gen, die *|ers- ten Veil- chen|blüh'n, _ _ die|ers- ten * Veil- chen|
w: sin- gen, die *|Quel- le rauscht ins|Tal, _ _ die|Quel- le * rauscht ins|
w: flie- gen, ich *|möch- te hin- ter-|drein, _ _ ich|möch- te * hin- ter-|
[Q:1/4=80]"^a tempo" c2!>)! z!mf! c | ff fe | !>!e>d d |"^cresc." d | gg gf | !>!f>e e!f!!<(!c | %16
w: blüh'n, und|gol- den lie- gen|Tal und Höh'n.|1\-3.~O|Welt, du bist so|wun- der- schön im|
w: Tal; und|freu- dig hallt das|Luft- ge- tön:||||
w: drein; möcht'|ju- beln ü- ber|Tal und Höh'n:||||
 (a2 ga!<)! | bd) !breath!a!>(!g | (f2 e2)!>)! | !fermata!f2 z |] %20
w: Mai- * *|* * en, im|Mai- *|en!|
w: ||||
w: ||||
V:2
 A | A^G Ac | c2 cB | BB B>G | F3 A | A^G A c/a/ | =B2 cc | c>c =BB | (c2 =B)_B | AA GG | G2 x c | %11
 cc ^cc | ^c>d d | d | dd dd | c>c cc | (cf e_e | d2) dd | (c2 B2) | A2 x |] %20
V:3
!p!!<(! F, | F,F, F,!<)!A, | !>!B,2!>(! B,G, | G,G, E,>!>)!E, | F,C, A,F, | C,D, C,A, | %6
w: ||||* die ers- ten|Ler- * * chen|
w: ||||* die mun- tern|Vö- * * gel|
w: ||||* Wie hoch die|Vö- * * gel|
 !>!F,2 G,A, |!<(! G,>G,!<)! G,G, |!f! G,A, !breath!_A,G, |!>(! F, G,/F,/ E,F, | E,2!>)! z!mf! E, | %11
w: |||||
w: |||||
w: |||||
 F,A, A,G, | !>!G,>F, F, |"^cresc." F, | D,G, G,^G, | !>!A,>=G, G,!f!!<(!B, | (A,2 B,C!<)! | %17
w: ||||||
w: ||||||
w: ||||||
 D2) !breath!C!>(!B, | (A,2 G,2)!>)! | !fermata!F,2 z |] %20
w: |||
w: |||
w: |||
V:4
 F, | F,F, F,F, | G,2 G,F, | E,E, C,>C, | F,,2 z F,, | F,,F,, F,,F, | F,2 E, F,/^F,/ | %7
 G,>G, G,=F, | E,_E, D,^C, | D,F,, G,,G,, | C,2 x _B,, | A,,A,, A,,A,, | B,,>B,, B,, | B,, | %14
 B,,B,, =B,,B,, | C,>C, C,E, | (F,4 | B,,2) B,,B,, | C,4 | F,,2 x |] %20

